coherent-logo.svg

<svg fill="none" height="41" viewBox="0 0 41 41" width="41" xmlns="http://www.w3.org/2000/svg"><path d="m20.029 20.2893v-8.726c-6.2316 0-11.30308-5.07144-11.30308-11.303046h-8.72592c0 11.062746 8.96624 20.029046 20.029 20.029046z" fill="#1c1828"/><path d="m40.0582 20.2893v-8.726c-6.2317 0-11.3031-5.07144-11.3031-11.303046h-8.726c0 11.062746 8.9663 20.029046 20.0291 20.029046z" fill="#6700f6"/><g fill="#1c1828"><path d="m20.029 40.2603v-8.7259c-6.2316 0-11.30308-5.0715-11.30308-11.3031h-8.72592c0 11.0627 8.96624 20.029 20.029 20.029z"/><path d="m20.0291 20.2313v8.7259c6.2317 0 11.3031 5.0715 11.3031 11.3031h8.726c0-11.0628-8.9663-20.029-20.0291-20.029z"/></g></svg>

<svg width="41" height="41" viewBox="0 0 41 41" fill="none" xmlns="http://www.w3.org/2000/svg">
<path d="M20.029 20.2893V11.5633C13.7974 11.5633 8.72592 6.49186 8.72592 0.260254H0C0 11.323 8.96624 20.2893 20.029 20.2893Z" fill="#1C1828"/>
<path d="M40.0582 20.2893V11.5633C33.8265 11.5633 28.7551 6.49186 28.7551 0.260254H20.0291C20.0291 11.323 28.9954 20.2893 40.0582 20.2893Z" fill="#6700F6"/>
<path d="M20.029 40.2603V31.5344C13.7974 31.5344 8.72592 26.4629 8.72592 20.2313H0C0 31.294 8.96624 40.2603 20.029 40.2603Z" fill="#1C1828"/>
<path d="M20.0291 20.2313V28.9572C26.2608 28.9572 31.3322 34.0287 31.3322 40.2603H40.0582C40.0582 29.1975 31.0919 20.2313 20.0291 20.2313Z" fill="#1C1828"/>
</svg>
